public/images/partners/LG.svg

<svg width="119" height="54" viewBox="0 0 119 54" fill="none" xmlns="http://www.w3.org/2000/svg">
<g id="LG_logo 1">
<path id="Vector" d="M103.17 30.7213H109.271V36.3968C108.151 36.8238 105.954 37.2509 103.87 37.2509C97.1218 37.2509 94.8775 33.8251 94.8775 26.8684C94.8775 20.2291 97.0142 16.3221 103.756 16.3221C107.514 16.3221 109.645 17.501 111.413 19.7492L116.074 15.4663C113.228 11.4071 108.259 10.1769 103.594 10.1769C93.1057 10.1727 87.5909 15.8936 87.5909 26.813C87.5909 37.6782 92.574 43.5681 103.538 43.5681C108.573 43.5681 113.493 42.2867 116.173 40.4086V24.6724H103.17L103.17 30.7213ZM71.1666 36.7701H86.6933V43.0863H63.6736V10.6529H71.1672L71.1666 36.7701Z" fill="#6B6C6B"/>
<path id="Vector_2" d="M45.1013 44.7377C54.8961 34.9428 54.8955 19.0612 45.1003 9.2685C35.3051 -0.525923 19.4238 -0.527102 9.63117 9.26753C-0.163645 19.0622 -0.163055 34.944 9.63213 44.7367C19.4271 54.5319 35.3086 54.5321 45.1013 44.7377Z" fill="#A50034"/>
<path id="Vector_3" d="M19.7568 22.1107C20.3287 22.1079 20.887 21.9357 21.3612 21.6159C21.8352 21.2962 22.2041 20.8432 22.4209 20.314C22.638 19.7849 22.6932 19.2032 22.58 18.6427C22.4666 18.0821 22.1898 17.5677 21.7845 17.1643C21.379 16.7609 20.8632 16.4866 20.3021 16.376C19.7411 16.2655 19.1597 16.3237 18.6317 16.5431C18.1035 16.7627 17.6523 17.1336 17.3348 17.6095C17.0174 18.0851 16.8481 18.6442 16.8481 19.216C16.8489 19.5971 16.9249 19.9743 17.0715 20.3259C17.2184 20.6777 17.4328 20.9971 17.7029 21.2658C17.9731 21.5346 18.2936 21.7476 18.6459 21.8925C18.9983 22.0376 19.3758 22.1116 19.7568 22.1107ZM46.2856 27.7974H33.5308V25.908H48.1549C48.1749 26.274 48.1848 26.6398 48.1848 27.01C48.1848 38.3866 38.9129 47.6086 27.4783 47.6086C16.0432 47.6086 6.76978 38.3923 6.76978 27.01C6.76978 15.6288 16.0403 6.4115 27.4763 6.4115C27.7782 6.4115 28.0786 6.4176 28.3775 6.42997V8.30517C28.0786 8.29183 27.7791 8.28525 27.479 8.28525C17.0853 8.28525 8.65642 16.6688 8.65642 27.0081C8.65642 37.3477 17.0841 45.7328 27.479 45.7328C37.5882 45.7328 45.8469 37.8007 46.284 27.8499L46.2856 27.7974ZM33.5017 35.6686H28.3758V16.4106H26.4807V37.5708H28.3802V37.5581H33.506L33.5017 35.6686Z" fill="white"/>
</g>
</svg>

<svg xmlns="http://www.w3.org/2000/svg" width="119" height="54" fill="none"><path fill="#6B6C6B" d="M103.17 30.721h6.101v5.676c-1.12.427-3.317.854-5.401.854-6.748 0-8.993-3.426-8.993-10.383 0-6.639 2.137-10.546 8.879-10.546 3.758 0 5.889 1.179 7.657 3.427l4.661-4.283c-2.846-4.059-7.815-5.29-12.48-5.29-10.488-.003-16.003 5.718-16.003 16.637 0 10.865 4.983 16.755 15.947 16.755 5.035 0 9.955-1.281 12.635-3.16V24.673H103.17zm-32.003 6.05h15.526v6.315h-23.02V10.653h7.494z"/><path fill="#A50034" d="M45.101 44.738c9.795-9.795 9.795-25.677 0-35.47-9.796-9.794-25.677-9.795-35.47 0-9.795 9.794-9.794 25.676.001 35.469 9.795 9.795 25.677 9.795 35.47 0"/><path fill="#fff" d="M19.757 22.11a2.895 2.895 0 1 0-2.686-1.784 2.9 2.9 0 0 0 2.686 1.785m26.529 5.687H33.53v-1.889h14.624q.03.548.03 1.102c0 11.377-9.272 20.599-20.707 20.599S6.77 38.392 6.77 27.01 16.04 6.412 27.476 6.412q.453 0 .902.018v1.875a20 20 0 0 0-.899-.02c-10.394 0-18.823 8.384-18.823 18.723 0 10.34 8.428 18.725 18.823 18.725 10.11 0 18.368-7.932 18.805-17.883zM33.502 35.67h-5.126V16.41H26.48v21.16h1.9v-.013h5.125z"/></svg>
